icons/1_Primary/Schibsted.svg

<svg xmlns="http://www.w3.org/2000/svg" viewBox="0 0 1024 1024">
   <circle cx="512" cy="512" r="512" style="fill:#061a57"/>
   <path d="M393.56 518.96c-7.42 0-13.02 5.6-13.02 13.02 0 3.33 1.21 6.66 3.48 9.08 2.88 3.18 10.9 10.14 15.74 14.38 2.88 2.42 6.36 2.88 8.02 2.88 7.42 0 13.02-5.6 13.02-13.02 0-3.48-2.12-8.02-4.99-10.14-4.24-3.18-11.65-10.14-13.32-11.96-2.27-2.42-6.05-4.24-8.93-4.24Zm42.84 34.51c-6.66 0-11.65 4.99-11.65 11.65 0 4.99 2.88 8.48 6.66 10.59 2.42 1.36 7.42 3.18 10.9 4.54 2.42 1.06 2.88 1.06 3.48 1.06 8.48 0 12.26-5.9 12.26-11.2 0-5.6-3.93-9.84-6.96-11.2-8.78-3.48-6.96-3.18-9.54-4.24-1.21-.91-3.63-1.21-5.15-1.21Zm42.99 15.89c-6.66-1.06-12.71 2.88-12.71 9.84 0 2.57.91 4.99 2.42 6.96 1.66 1.97 3.78 3.33 6.36 3.94 2.57.6 5.15.91 7.72 1.06 5.9 0 10.59-4.24 10.59-10.14 0-4.99-3.94-9.54-8.78-10.59-2.12-.45-4.54-.76-5.6-1.06Zm-55.85-67.96c-6.96 0-12.26 5.3-12.26 12.26 0 4.24 2.12 8.02 3.94 9.84 2.12 2.12 15.74 12.71 18.62 14.38 2.42 1.36 4.99 2.12 7.72 2.12 6.36 0 11.96-5.3 11.96-11.96 0-4.54-2.42-9.08-5.6-11.2-4.54-2.88-11.2-8.02-15.44-11.96-3.03-2.42-5.9-3.48-8.93-3.48Zm88.55 72.5c-5.6 0-9.84 4.24-9.84 9.84s4.24 9.84 9.84 9.84 9.84-4.24 9.84-9.84-4.24-9.84-9.84-9.84Zm-36.63-42.53c-9.08-2.12-14.83 2.42-14.83 9.84 0 5.9 3.48 10.14 8.02 11.65 7.72 2.42 10.59 3.18 12.71 3.18 5.9 0 11.2-4.54 11.2-11.2 0-5.3-3.18-9.08-8.78-10.9-9.69-3.03-7.57-2.57-8.32-2.57Zm36.63 6.66c-5.6 0-9.84 4.24-9.84 9.84s4.24 9.84 9.84 9.84 9.84-4.24 9.84-9.84-4.24-9.84-9.84-9.84Zm-58.43-57.97c-6.36 0-11.65 5.3-11.65 11.96 0 3.48 2.12 7.42 4.54 9.54 5 4.24 21.8 14.08 32.39 17.25 1.21.45 2.57.6 3.93.76 1.51 0 3.03-.3 4.39-.91 1.36-.61 2.72-1.36 3.78-2.57 1.06-1.06 1.97-2.42 2.57-3.78.61-1.36.91-2.88.91-4.39 0-5.9-4.24-10.14-8.02-11.65-9.08-3.48-19.68-9.08-24.97-13.32-2.27-1.97-4.99-3.03-7.87-2.88Zm58.43 22.1c-5.6 0-9.84 4.24-9.84 9.84s4.24 9.84 9.84 9.84 9.84-4.24 9.84-9.84-4.24-9.84-9.84-9.84Zm.3-262.16c-101.26 0-177.1 77.65-177.1 173.31 0 38.29 12.26 81.89 25.73 98.08 3.18 3.93 6.66 6.66 11.96 6.66 8.02 0 14.08-5.9 14.08-14.08 0-2.42-1.06-5.6-2.12-7.42-3.18-4.54 2.12-7.72 4.54-3.48 2.12 3.48 6.96 6.96 12.71 6.96 7.42 0 13.32-6.36 13.32-13.32 0-2.72-.76-5.45-2.12-7.72-3.48-5.6 2.12-7.72 4.24-4.24 2.88 4.54 7.72 7.42 12.71 7.42 3.63 0 7.11-1.51 9.69-4.09s4.09-6.05 4.09-9.69c0-2.42-.76-5.3-1.82-6.96-7.72-13.77-11.2-27.7-11.2-43.59 0-50.25 34.81-86.43 81.13-86.43 37.99 0 68.11 24.22 77.95 60.09l90.97-29.51c-22.25-72.5-87.64-122-168.77-122Zm118.06 265.04c7.42 0 13.02-5.6 13.02-13.02 0-3.33-1.21-6.66-3.48-9.08-2.88-3.18-10.9-10.14-15.74-14.38-2.88-2.42-6.36-2.88-8.02-2.88-7.42 0-13.02 5.6-13.02 13.02 0 3.48 2.12 8.02 4.99 10.14 4.24 3.18 11.65 10.14 13.32 11.96 2.27 2.42 6.21 4.24 8.93 4.24Zm-42.84-34.51c6.66 0 11.65-4.99 11.65-11.65 0-4.99-2.88-8.48-6.66-10.59-2.42-1.36-7.42-3.18-10.9-4.54-2.42-1.06-2.88-1.06-3.48-1.06-8.48 0-12.26 5.9-12.26 11.2 0 5.6 3.94 9.84 6.96 11.2 8.78 3.48 6.96 3.18 9.54 4.24 1.21.91 3.78 1.21 5.15 1.21Zm-42.84-15.89c6.66 1.06 12.71-2.88 12.71-9.84 0-2.57-.91-4.99-2.42-6.96-1.66-1.97-3.78-3.33-6.36-3.94s-5.15-.91-7.72-1.06c-5.9 0-10.59 4.24-10.59 10.14 0 4.99 3.94 9.54 8.78 10.59 1.97.45 4.54.76 5.6 1.06Zm55.85 67.96c6.96 0 12.26-5.3 12.26-12.26 0-4.24-2.12-8.02-3.94-9.84-2.12-2.12-15.74-12.71-18.62-14.38-2.42-1.36-4.99-2.12-7.72-2.12-6.36 0-11.96 5.3-11.96 11.96 0 4.54 2.42 9.08 5.6 11.2 4.54 2.88 11.2 8.02 15.44 11.96 2.87 2.42 5.75 3.48 8.93 3.48Zm-88.55-72.5c5.6 0 9.84-4.24 9.84-9.84s-4.24-9.84-9.84-9.84-9.84 4.24-9.84 9.84 4.24 9.84 9.84 9.84Zm36.48 42.53c9.08 2.12 14.83-2.42 14.83-9.84 0-5.9-3.48-10.14-8.02-11.65-7.72-2.42-10.59-3.18-12.71-3.18-5.9 0-11.2 4.54-11.2 11.2 0 5.3 3.18 9.08 8.78 10.9 9.84 3.03 7.72 2.57 8.32 2.57Zm-36.48-6.66c5.6 0 9.84-4.24 9.84-9.84s-4.24-9.84-9.84-9.84-9.84 4.24-9.84 9.84 4.24 9.84 9.84 9.84Zm58.28 57.97c6.36 0 11.65-5.3 11.65-11.96 0-3.48-2.12-7.42-4.54-9.54-4.99-4.24-21.8-14.08-32.39-17.25-1.21-.45-2.57-.61-3.94-.76-1.51 0-3.03.3-4.39.91-1.36.61-2.72 1.36-3.78 2.57-1.06 1.06-1.97 2.42-2.57 3.78a10.86 10.86 0 0 0-.91 4.39c0 5.9 4.24 10.14 8.02 11.65 9.08 3.48 19.68 9.08 24.97 13.32 2.27 1.97 4.99 3.03 7.87 2.88Zm-58.27-22.1c5.6 0 9.84-4.24 9.84-9.84s-4.24-9.84-9.84-9.84-9.84 4.24-9.84 9.84 4.24 9.84 9.84 9.84ZM511.63 784c101.26 0 177.1-77.65 177.1-173.31 0-38.29-12.26-81.89-25.73-98.08-3.18-3.93-6.66-6.66-11.96-6.66-8.02 0-14.08 5.9-14.08 14.08 0 2.42 1.06 5.6 2.12 7.42 3.18 4.54-2.12 7.72-4.54 3.48-2.12-3.48-6.96-6.96-12.71-6.96-7.42 0-13.32 6.36-13.32 13.32 0 2.72.76 5.45 2.12 7.72 3.48 5.6-2.12 7.72-4.24 4.24-2.88-4.54-7.72-7.42-12.71-7.42-3.63 0-7.11 1.51-9.69 4.09-2.57 2.57-4.09 6.05-4.09 9.69 0 2.42.76 5.3 1.82 6.96 7.72 13.77 11.2 27.7 11.2 43.59 0 50.25-34.81 86.43-81.13 86.43-37.99 0-68.26-24.22-78.1-60.09l-90.97 29.51c22.4 72.5 87.79 122 168.92 122Z" style="fill:#fff"/>
</svg>

<svg width="1024" height="1024" viewBox="0 0 1024 1024" fill="none" xmlns="http://www.w3.org/2000/svg">
<g clip-path="url(#clip0_2_3411)">
<path d="M512 1024C794.77 1024 1024 794.77 1024 512C1024 229.23 794.77 0 512 0C229.23 0 0 229.23 0 512C0 794.77 229.23 1024 512 1024Z" fill="#54688C"/>
<path d="M393.56 518.96C386.14 518.96 380.54 524.56 380.54 531.98C380.54 535.31 381.75 538.64 384.02 541.06C386.9 544.24 394.92 551.2 399.76 555.44C402.64 557.86 406.12 558.32 407.78 558.32C415.2 558.32 420.8 552.72 420.8 545.3C420.8 541.82 418.68 537.28 415.81 535.16C411.57 531.98 404.16 525.02 402.49 523.2C400.22 520.78 396.44 518.96 393.56 518.96ZM436.4 553.47C429.74 553.47 424.75 558.46 424.75 565.12C424.75 570.11 427.63 573.6 431.41 575.71C433.83 577.07 438.83 578.89 442.31 580.25C444.73 581.31 445.19 581.31 445.79 581.31C454.27 581.31 458.05 575.41 458.05 570.11C458.05 564.51 454.12 560.27 451.09 558.91C442.31 555.43 444.13 555.73 441.55 554.67C440.34 553.76 437.92 553.46 436.4 553.46V553.47ZM479.39 569.36C472.73 568.3 466.68 572.24 466.68 579.2C466.68 581.77 467.59 584.19 469.1 586.16C470.76 588.13 472.88 589.49 475.46 590.1C478.03 590.7 480.61 591.01 483.18 591.16C489.08 591.16 493.77 586.92 493.77 581.02C493.77 576.03 489.83 571.48 484.99 570.43C482.87 569.98 480.45 569.67 479.39 569.37V569.36ZM423.54 501.4C416.58 501.4 411.28 506.7 411.28 513.66C411.28 517.9 413.4 521.68 415.22 523.5C417.34 525.62 430.96 536.21 433.84 537.88C436.26 539.24 438.83 540 441.56 540C447.92 540 453.52 534.7 453.52 528.04C453.52 523.5 451.1 518.96 447.92 516.84C443.38 513.96 436.72 508.82 432.48 504.88C429.45 502.46 426.58 501.4 423.55 501.4H423.54ZM512.09 573.9C506.49 573.9 502.25 578.14 502.25 583.74C502.25 589.34 506.49 593.58 512.09 593.58C517.69 593.58 521.93 589.34 521.93 583.74C521.93 578.14 517.69 573.9 512.09 573.9ZM475.46 531.37C466.38 529.25 460.63 533.79 460.63 541.21C460.63 547.11 464.11 551.35 468.65 552.86C476.37 555.28 479.24 556.04 481.36 556.04C487.26 556.04 492.56 551.5 492.56 544.84C492.56 539.54 489.38 535.76 483.78 533.94C474.09 530.91 476.21 531.37 475.46 531.37ZM512.09 538.03C506.49 538.03 502.25 542.27 502.25 547.87C502.25 553.47 506.49 557.71 512.09 557.71C517.69 557.71 521.93 553.47 521.93 547.87C521.93 542.27 517.69 538.03 512.09 538.03ZM453.66 480.06C447.3 480.06 442.01 485.36 442.01 492.02C442.01 495.5 444.13 499.44 446.55 501.56C451.55 505.8 468.35 515.64 478.94 518.81C480.15 519.26 481.51 519.41 482.87 519.57C484.38 519.57 485.9 519.27 487.26 518.66C488.62 518.05 489.98 517.3 491.04 516.09C492.1 515.03 493.01 513.67 493.61 512.31C494.22 510.95 494.52 509.43 494.52 507.92C494.52 502.02 490.28 497.78 486.5 496.27C477.42 492.79 466.82 487.19 461.53 482.95C459.26 480.98 456.54 479.92 453.66 480.07V480.06ZM512.09 502.16C506.49 502.16 502.25 506.4 502.25 512C502.25 517.6 506.49 521.84 512.09 521.84C517.69 521.84 521.93 517.6 521.93 512C521.93 506.4 517.69 502.16 512.09 502.16ZM512.39 240C411.13 240 335.29 317.65 335.29 413.31C335.29 451.6 347.55 495.2 361.02 511.39C364.2 515.32 367.68 518.05 372.98 518.05C381 518.05 387.06 512.15 387.06 503.97C387.06 501.55 386 498.37 384.94 496.55C381.76 492.01 387.06 488.83 389.48 493.07C391.6 496.55 396.44 500.03 402.19 500.03C409.61 500.03 415.51 493.67 415.51 486.71C415.51 483.99 414.75 481.26 413.39 478.99C409.91 473.39 415.51 471.27 417.63 474.75C420.51 479.29 425.35 482.17 430.34 482.17C433.97 482.17 437.45 480.66 440.03 478.08C442.61 475.5 444.12 472.03 444.12 468.39C444.12 465.97 443.36 463.09 442.3 461.43C434.58 447.66 431.1 433.73 431.1 417.84C431.1 367.59 465.91 331.41 512.23 331.41C550.22 331.41 580.34 355.63 590.18 391.5L681.15 361.99C658.9 289.49 593.51 239.99 512.38 239.99L512.39 240ZM630.45 505.04C637.87 505.04 643.47 499.44 643.47 492.02C643.47 488.69 642.26 485.36 639.99 482.94C637.11 479.76 629.09 472.8 624.25 468.56C621.37 466.14 617.89 465.68 616.23 465.68C608.81 465.68 603.21 471.28 603.21 478.7C603.21 482.18 605.33 486.72 608.2 488.84C612.44 492.02 619.85 498.98 621.52 500.8C623.79 503.22 627.73 505.04 630.45 505.04ZM587.61 470.53C594.27 470.53 599.26 465.54 599.26 458.88C599.26 453.89 596.38 450.4 592.6 448.29C590.18 446.93 585.18 445.11 581.7 443.75C579.28 442.69 578.82 442.69 578.22 442.69C569.74 442.69 565.96 448.59 565.96 453.89C565.96 459.49 569.9 463.73 572.92 465.09C581.7 468.57 579.88 468.27 582.46 469.33C583.67 470.24 586.24 470.54 587.61 470.54V470.53ZM544.77 454.64C551.43 455.7 557.48 451.76 557.48 444.8C557.48 442.23 556.57 439.81 555.06 437.84C553.4 435.87 551.28 434.51 548.7 433.9C546.12 433.29 543.55 432.99 540.98 432.84C535.08 432.84 530.39 437.08 530.39 442.98C530.39 447.97 534.33 452.52 539.17 453.57C541.14 454.02 543.71 454.33 544.77 454.63V454.64ZM600.62 522.6C607.58 522.6 612.88 517.3 612.88 510.34C612.88 506.1 610.76 502.32 608.94 500.5C606.82 498.38 593.2 487.79 590.32 486.12C587.9 484.76 585.33 484 582.6 484C576.24 484 570.64 489.3 570.64 495.96C570.64 500.5 573.06 505.04 576.24 507.16C580.78 510.04 587.44 515.18 591.68 519.12C594.55 521.54 597.43 522.6 600.61 522.6H600.62ZM512.07 450.1C517.67 450.1 521.91 445.86 521.91 440.26C521.91 434.66 517.67 430.42 512.07 430.42C506.47 430.42 502.23 434.66 502.23 440.26C502.23 445.86 506.47 450.1 512.07 450.1ZM548.55 492.63C557.63 494.75 563.38 490.21 563.38 482.79C563.38 476.89 559.9 472.65 555.36 471.14C547.64 468.72 544.77 467.96 542.65 467.96C536.75 467.96 531.45 472.5 531.45 479.16C531.45 484.46 534.63 488.24 540.23 490.06C550.07 493.09 547.95 492.63 548.55 492.63ZM512.07 485.97C517.67 485.97 521.91 481.73 521.91 476.13C521.91 470.53 517.67 466.29 512.07 466.29C506.47 466.29 502.23 470.53 502.23 476.13C502.23 481.73 506.47 485.97 512.07 485.97ZM570.35 543.94C576.71 543.94 582 538.64 582 531.98C582 528.5 579.88 524.56 577.46 522.44C572.47 518.2 555.66 508.36 545.07 505.19C543.86 504.74 542.5 504.58 541.13 504.43C539.62 504.43 538.1 504.73 536.74 505.34C535.38 505.95 534.02 506.7 532.96 507.91C531.9 508.97 530.99 510.33 530.39 511.69C529.785 513.074 529.475 514.57 529.48 516.08C529.48 521.98 533.72 526.22 537.5 527.73C546.58 531.21 557.18 536.81 562.47 541.05C564.74 543.02 567.46 544.08 570.34 543.93L570.35 543.94ZM512.08 521.84C517.68 521.84 521.92 517.6 521.92 512C521.92 506.4 517.68 502.16 512.08 502.16C506.48 502.16 502.24 506.4 502.24 512C502.24 517.6 506.48 521.84 512.08 521.84ZM511.63 784C612.89 784 688.73 706.35 688.73 610.69C688.73 572.4 676.47 528.8 663 512.61C659.82 508.68 656.34 505.95 651.04 505.95C643.02 505.95 636.96 511.85 636.96 520.03C636.96 522.45 638.02 525.63 639.08 527.45C642.26 531.99 636.96 535.17 634.54 530.93C632.42 527.45 627.58 523.97 621.83 523.97C614.41 523.97 608.51 530.33 608.51 537.29C608.51 540.01 609.27 542.74 610.63 545.01C614.11 550.61 608.51 552.73 606.39 549.25C603.51 544.71 598.67 541.83 593.68 541.83C590.05 541.83 586.57 543.34 583.99 545.92C581.42 548.49 579.9 551.97 579.9 555.61C579.9 558.03 580.66 560.91 581.72 562.57C589.44 576.34 592.92 590.27 592.92 606.16C592.92 656.41 558.11 692.59 511.79 692.59C473.8 692.59 443.53 668.37 433.69 632.5L342.72 662.01C365.12 734.51 430.51 784.01 511.64 784.01L511.63 784Z" fill="white"/>
</g>
<defs>
<clipPath id="clip0_2_3411">
<rect width="1024" height="1024" fill="white"/>
</clipPath>
</defs>
</svg>
